gama.ui.shared/icons_svg/light/generic/menu.undo.svg

<svg height="25" viewBox="-133.318 -3656.935 25 25" width="25" xmlns="http://www.w3.org/2000/svg"><g fill="none"><path d="m-128.97804-3656.4352h16.32c2.12077 0 3.84 1.7192 3.84 3.84v16.32c0 2.1207-1.71923 3.84-3.84 3.84h-16.32c-2.12077 0-3.84-1.7193-3.84-3.84v-16.32c0-2.1208 1.71923-3.84 3.84-3.84z" fill="#fff"/><path d="m-128.97804-3656.4352h16.32c2.12077 0 3.84 1.7192 3.84 3.84v16.32c0 2.1207-1.71923 3.84-3.84 3.84h-16.32c-2.12077 0-3.84-1.7193-3.84-3.84v-16.32c0-2.1208 1.71923-3.84 3.84-3.84z" stroke="#000" stroke-linecap="round" stroke-linejoin="round" stroke-width=".25"/><path d="m-127.94648-3644.661c-.14112.2164-.42337.2916-.64917.1505-.21639-.1411-.29165-.4235-.15053-.6492 1.55236-2.4743 4.27135-3.9797 7.19731-3.9797h.26343c4.49715 0 8.21341 3.5187 8.45802 7.9971 0 .1129.00941.715.00941 1.8816 0 .2634-.20698.4704-.47041.4704s-.47042-.207-.47042-.4704c0-1.1196 0-1.7499-.0094-1.8346-.21639-3.9797-3.51869-7.1032-7.5172-7.1032h-.26343c-2.59667 0-5.01459 1.3359-6.3882 3.5375zm4.30898-.715c.26343 0 .47041.207.47041.4704 0 .2636-.20698.4704-.47041.4704h-4.70412c-.26343 0-.47042-.2068-.47042-.4704v-4.7042c0-.2632.20699-.4702.47042-.4702s.47041.207.47041.4702v4.2338z" fill="#9f4c4d"/></g></svg>

<?xml version="1.0" encoding="UTF-8" standalone="no"?>
<!DOCTYPE svg PUBLIC "-//W3C//DTD SVG 1.1//EN" "http://www.w3.org/Graphics/SVG/1.1/DTD/svg11.dtd">
<svg version="1.1" xmlns="http://www.w3.org/2000/svg" xmlns:xl="http://www.w3.org/1999/xlink" xmlns:dc="http://purl.org/dc/elements/1.1/" viewBox="-133.31804 -3656.9352 25 25" width="25" height="25">
  <defs/>
  <g id="SOURCES" stroke-dasharray="none" fill="none" stroke="none" fill-opacity="1" stroke-opacity="1">
    <title>SOURCES</title>
    <g id="SOURCES_Calque_2">
      <title>Calque 2</title>
      <g id="Graphic_9254">
        <path d="M -128.97804 -3656.4352 L -112.65804 -3656.4352 C -110.53727 -3656.4352 -108.81804 -3654.716 -108.81804 -3652.5952 L -108.81804 -3636.2752 C -108.81804 -3634.1545 -110.53727 -3632.4352 -112.65804 -3632.4352 L -128.97804 -3632.4352 C -131.09881 -3632.4352 -132.81804 -3634.1545 -132.81804 -3636.2752 L -132.81804 -3652.5952 C -132.81804 -3654.716 -131.09881 -3656.4352 -128.97804 -3656.4352 Z" fill="white"/>
        <path d="M -128.97804 -3656.4352 L -112.65804 -3656.4352 C -110.53727 -3656.4352 -108.81804 -3654.716 -108.81804 -3652.5952 L -108.81804 -3636.2752 C -108.81804 -3634.1545 -110.53727 -3632.4352 -112.65804 -3632.4352 L -128.97804 -3632.4352 C -131.09881 -3632.4352 -132.81804 -3634.1545 -132.81804 -3636.2752 L -132.81804 -3652.5952 C -132.81804 -3654.716 -131.09881 -3656.4352 -128.97804 -3656.4352 Z" stroke="black" stroke-linecap="round" stroke-linejoin="round" stroke-width=".25"/>
      </g>
      <g id="Group_9319">
        <title>undo</title>
        <g id="Graphic_9320">
          <path d="M -127.94648 -3644.661 C -128.0876 -3644.4446 -128.36985 -3644.3694 -128.59565 -3644.5105 C -128.81204 -3644.6516 -128.8873 -3644.934 -128.74618 -3645.1597 C -127.19382 -3647.634 -124.47483 -3649.1394 -121.54887 -3649.1394 L -121.28544 -3649.1394 C -116.78829 -3649.1394 -113.07203 -3645.6207 -112.82742 -3641.1423 C -112.82742 -3641.0294 -112.81801 -3640.4273 -112.81801 -3639.2607 C -112.81801 -3638.9973 -113.02499 -3638.7903 -113.28842 -3638.7903 C -113.55185 -3638.7903 -113.75884 -3638.9973 -113.75884 -3639.2607 C -113.75884 -3640.3803 -113.75884 -3641.0106 -113.76824 -3641.0953 C -113.98463 -3645.075 -117.28693 -3648.1985 -121.28544 -3648.1985 L -121.54887 -3648.1985 C -124.14554 -3648.1985 -126.56346 -3646.8626 -127.93707 -3644.661 Z M -123.6375 -3645.376 C -123.37407 -3645.376 -123.16709 -3645.169 -123.16709 -3644.9056 C -123.16709 -3644.642 -123.37407 -3644.4352 -123.6375 -3644.4352 L -128.34162 -3644.4352 C -128.60505 -3644.4352 -128.81204 -3644.642 -128.81204 -3644.9056 L -128.81204 -3649.6098 C -128.81204 -3649.873 -128.60505 -3650.08 -128.34162 -3650.08 C -128.07819 -3650.08 -127.87121 -3649.873 -127.87121 -3649.6098 L -127.87121 -3645.376 Z" fill="#9f4c4d"/>
        </g>
      </g>
    </g>
  </g>
</svg>
